X:18350
T:Wae's Me for Prince Charlie
M:4/4
R:song
L:1/8
Z:added by Alf warnock@magma.ca
K:D
"D"A2AB d3f|"G"BABd "A"e3f|"D"A3B "Bm"dfed|"Em"B4 "A7"A4|
"A"e3f a3b|"D"afef d3f|"A"e2fg a2g2|"Em"f4 "A"e3d|
e3f a3b|"D"afed "A"e2f2|"D"A3B "Bm"dfed|"Em"B4 "A7"A4|
]


